src/public/icons/exchange.svg

<svg viewBox="0 0 30 30" fill="none"
  xmlns="http://www.w3.org/2000/svg">
  <path d="M4.80005 21.5502C4.80005 22.0474 4.91704 22.508 5.15102 22.9321C5.39962 23.3562 5.73596 23.6999 6.16005 23.9631C6.55489 24.1971 6.97166 24.3141 7.41037 24.3141C7.62973 24.3141 7.87102 24.2775 8.13424 24.2044C8.79231 23.9997 9.33338 23.5683 9.75747 22.9102C9.99145 22.5154 10.1084 22.0913 10.1084 21.6379C10.1231 21.0822 10.2181 20.5777 10.3936 20.1244C10.5106 19.8319 10.6714 19.5029 10.8762 19.1373C11.0517 18.8448 11.2418 18.5743 11.4465 18.3257C11.7243 17.9601 12.0607 17.6457 12.4555 17.3825L12.653 17.2947L12.7188 17.2508C12.7334 17.2508 12.748 17.2362 12.7626 17.207C12.982 17.1046 13.2233 17.0169 13.4865 16.9437C13.7643 16.8706 13.9398 16.8268 14.013 16.8121C14.3054 16.7683 14.6345 16.7463 15 16.7463C15.351 16.7463 15.68 16.7683 15.9871 16.8121C16.4697 16.9145 16.945 17.0827 17.413 17.3166L17.5226 17.3605C17.976 17.6969 18.3123 18.0186 18.5317 18.3257C18.8534 18.7644 19.0508 19.0496 19.1239 19.1812C19.3579 19.5906 19.5114 19.9123 19.5846 20.1463C19.7893 20.6289 19.8917 21.1261 19.8917 21.6379V21.7037C19.8917 22.1132 20.0087 22.5154 20.2426 22.9102C20.5936 23.5536 21.12 23.9777 21.822 24.1825C22.0852 24.2556 22.3338 24.2921 22.5678 24.2921C23.0211 24.2921 23.4452 24.1751 23.84 23.9412C24.2495 23.6926 24.5712 23.3562 24.8052 22.9321C25.0538 22.508 25.1781 22.0547 25.1781 21.5721C25.1781 21.1627 25.0611 20.7093 24.8271 20.2121C24.6663 19.9197 24.3738 19.6199 23.9497 19.3128H23.862C23.3648 18.9618 22.9846 18.6182 22.7213 18.2818V18.216C22.502 17.982 22.3119 17.7042 22.151 17.3825C21.9755 17.0607 21.8293 16.7463 21.7123 16.4392C21.5368 16.059 21.4345 15.5764 21.4052 14.9915C21.4198 14.4065 21.5222 13.9093 21.7123 13.4999C21.8 13.2513 21.9463 12.9296 22.151 12.5347C22.2241 12.3592 22.3265 12.1837 22.4581 12.0083C22.6043 11.8328 22.6994 11.7158 22.7433 11.6573C23.0942 11.2332 23.4818 10.8896 23.9059 10.6263C24.3299 10.3777 24.6443 10.0779 24.8491 9.72697C25.0831 9.25902 25.2 8.79837 25.2 8.34504C25.2 7.84783 25.0831 7.3945 24.8491 6.98504C24.6151 6.57557 24.2861 6.24654 23.862 5.99794C23.4964 5.76396 23.065 5.64697 22.5678 5.64697C22.3046 5.64697 22.0779 5.67622 21.8878 5.73471C21.5368 5.83708 21.2151 5.99794 20.9226 6.2173C20.6448 6.43665 20.4254 6.69988 20.2646 7.00697C20.016 7.46031 19.8917 7.8917 19.8917 8.30117C19.8917 8.84224 19.7966 9.33945 19.6065 9.79278C19.5334 10.0268 19.3798 10.3485 19.1459 10.7579L19.0142 10.9334L18.5536 11.5915C18.3342 11.9278 17.9613 12.2569 17.4349 12.5786C16.9962 12.8126 16.6525 12.9442 16.4039 12.9734H16.36C16.3016 12.988 16.1846 13.01 16.0091 13.0392H15.9871C15.7385 13.0977 15.4095 13.127 15 13.127C14.6198 13.127 14.2908 13.0977 14.013 13.0392H13.991C13.8887 13.0392 13.7717 13.0173 13.64 12.9734H13.5962C13.3768 12.9442 13.0917 12.8345 12.7407 12.6444L12.6091 12.5786C12.5945 12.564 12.5652 12.5493 12.5213 12.5347C12.4921 12.5055 12.4628 12.4762 12.4336 12.447C12.0095 12.1837 11.6951 11.8986 11.4904 11.5915C11.4026 11.5037 11.2052 11.2332 10.8981 10.7799C10.7519 10.4874 10.6056 10.1584 10.4594 9.79278C10.2693 9.29557 10.1669 8.79837 10.1523 8.30117V8.21342C10.1084 7.71622 9.99876 7.31407 9.82327 7.00697C9.42844 6.34891 8.88736 5.92482 8.20005 5.73471C7.98069 5.67622 7.7394 5.64697 7.47618 5.64697C6.97897 5.64697 6.54026 5.76396 6.16005 5.99794C5.75059 6.23192 5.42887 6.56095 5.19489 6.98504C4.96091 7.3945 4.84392 7.84783 4.84392 8.34504C4.84392 8.73988 4.96091 9.20052 5.19489 9.72697C5.385 10.0341 5.68478 10.3265 6.09424 10.6044H6.16005C6.59876 10.9115 6.97166 11.2551 7.27876 11.6354V11.7012C7.51274 11.9644 7.68822 12.2422 7.80521 12.5347C7.93682 12.7102 8.09768 13.0173 8.28779 13.456C8.44865 13.8801 8.5437 14.3407 8.57295 14.8379V15.1012C8.5437 15.613 8.44865 16.0517 8.28779 16.4173C8.12693 16.7829 7.96607 17.0973 7.80521 17.3605C7.71747 17.5799 7.53467 17.865 7.25682 18.216C6.90586 18.6547 6.51833 18.9984 6.09424 19.247C5.65553 19.5248 5.34112 19.8392 5.15102 20.1902C4.91704 20.6289 4.80005 21.0822 4.80005 21.5502Z" fill="#706b6d"/>
</svg>

<svg xmlns="http://www.w3.org/2000/svg" fill="none" viewBox="0 0 30 30"><path fill="#706b6d" d="M4.8 21.55q0 .746.351 1.382a2.96 2.96 0 0 0 1.01 1.031q.59.351 1.25.351.329 0 .723-.11.988-.306 1.623-1.294.351-.592.351-1.272.022-.833.286-1.514a9 9 0 0 1 .482-.987q.264-.438.57-.811a4.1 4.1 0 0 1 1.01-.944l.197-.087.066-.044q.021 0 .044-.044.329-.153.723-.263.417-.11.527-.132.438-.066.987-.066a7 7 0 0 1 .987.066q.724.153 1.426.505l.11.043q.68.506 1.009.966.482.658.592.855.35.615.46.965.308.724.308 1.492v.066q0 .614.35 1.206a2.55 2.55 0 0 0 1.58 1.273q.395.11.746.11.68 0 1.272-.352.615-.372.965-1.009.373-.636.373-1.36 0-.615-.35-1.36-.242-.438-.878-.9h-.088q-.745-.526-1.14-1.03v-.066a3.5 3.5 0 0 1-.571-.834 8 8 0 0 1-.439-.943q-.262-.57-.307-1.447.022-.879.307-1.492.132-.373.439-.965.11-.263.307-.527.219-.263.285-.35.527-.637 1.163-1.032.636-.372.943-.899.351-.702.351-1.382 0-.745-.35-1.36a2.66 2.66 0 0 0-.988-.987q-.549-.351-1.294-.351-.395 0-.68.088a3 3 0 0 0-.965.482q-.418.33-.658.79-.373.68-.373 1.294a3.8 3.8 0 0 1-.285 1.492q-.11.351-.461.965l-.132.175-.46.659q-.33.504-1.12.987-.657.35-1.03.394h-.044a6 6 0 0 1-.35.066h-.023q-.373.088-.987.088-.57 0-.987-.088h-.022q-.154 0-.351-.066h-.044q-.33-.044-.855-.329l-.132-.065a.24.24 0 0 0-.088-.044l-.087-.088q-.637-.395-.944-.855-.131-.132-.592-.812a13 13 0 0 1-.439-.987 4.5 4.5 0 0 1-.307-1.492v-.088q-.066-.745-.329-1.206Q9.23 6.02 8.2 5.735a2.8 2.8 0 0 0-.724-.088 2.46 2.46 0 0 0-1.316.35q-.615.352-.965.988-.351.615-.351 1.36 0 .593.35 1.382.286.461.9.877h.066q.659.461 1.119 1.031v.066q.351.395.526.834.198.263.483.921.24.636.285 1.382v.263q-.044.768-.285 1.316-.242.549-.483.943-.132.33-.548.856a4.3 4.3 0 0 1-1.163 1.031q-.657.417-.943.943a2.86 2.86 0 0 0-.351 1.36"/></svg>
